easy/præstation.svg

<svg viewBox="-167.759 77.43 1353.738 506.676" xmlns="http://www.w3.org/2000/svg"><g data-name="Group 841"><path d="M1706.084 2266.589c117.924-14.978 231.493-25.767 340.251-15.336 105.371 10.211 207.568 35.215 301.749 73.824 38.126 15.535 77.832 38.748 70.245 80.508-4.743 26.066-27.265 52.626-49.969 76.688-32.937 34.897-69.45 69.31-112.975 93.917-77.216 43.639-162 49.133-240.085 52.476-196.272 8.415-392.477 15.496-580.766 4.894-68.041-3.837-135.478-10.071-194.871-28-32.281-9.749-64.446-26.426-63.412-58.448 1.491-45.958 41.679-91.609 90.482-117.631 97.664-52.058 110.26-70.183 211.337-99.883 42.942-12.623 157.937-47.972 265.728-67.766" data-name="Path 1182" style="paint-order:fill;stroke:#488eaf;stroke-dashoffset:-1px;stroke-miterlimit:8;stroke-width:7px;fill:#fff;stroke-dasharray:30px" transform="rotate(-172.991 1083.785 1435.967)"/><g><text data-name="Group 1348" style="fill:#333;font-family:&quot;Roboto Slab&quot;;font-size:50.5px;white-space:pre" transform="matrix(1.54096 0 0 1.4095 -477.845 -3047.026)"><tspan x="343.855" y="2356.99" style="font-weight:700">Præstation:</tspan><tspan> </tspan><tspan x="343.855" dy="1em">​</tspan><tspan>hvi jeg ikke giver mig 100%,</tspan><tspan x="343.855" dy="1em">​</tspan><tspan>er det ikke godt nok.</tspan></text></g></g></svg>

<?xml version="1.0" encoding="utf-8"?>
<svg xmlns="http://www.w3.org/2000/svg" xmlns:bx="https://boxy-svg.com" viewBox="-167.759 77.43 1353.738 506.676">
  <defs>
    
  </defs>
  <g id="Group_841" data-name="Group 841" transform="matrix(1, 0, 0, 1, -1299.699577, -2093.671868)">
    <path id="Path_1182" data-name="Path 1182" d="M 1706.084 2266.589 C 1824.008 2251.611 1937.577 2240.822 2046.335 2251.253 C 2151.706 2261.464 2253.903 2286.468 2348.084 2325.077 C 2386.21 2340.612 2425.916 2363.825 2418.329 2405.585 C 2413.586 2431.651 2391.064 2458.211 2368.36 2482.273 C 2335.423 2517.17 2298.91 2551.583 2255.385 2576.19 C 2178.169 2619.829 2093.385 2625.323 2015.3 2628.666 C 1819.028 2637.081 1622.823 2644.162 1434.534 2633.56 C 1366.493 2629.723 1299.056 2623.489 1239.663 2605.56 C 1207.382 2595.811 1175.217 2579.134 1176.251 2547.112 C 1177.742 2501.154 1217.93 2455.503 1266.733 2429.481 C 1364.397 2377.423 1376.993 2359.298 1478.07 2329.598 C 1521.012 2316.975 1636.007 2281.626 1743.798 2261.832" style="paint-order: fill; stroke: rgb(72, 142, 175); stroke-dashoffset: -1px; stroke-miterlimit: 8; stroke-width: 7px; fill: rgb(255, 255, 255); stroke-dasharray: 30px;" transform="matrix(-0.992526, -0.122032, 0.122032, -0.992526, 3283.934891, 5087.12954)"/>
    <g id="Group_1348" data-name="Group 1348" transform="matrix(0.977665, 0, 0, 1.026609, 997.291541, -302.301989)" style="">
      <text transform="matrix(1.576168, 0, 0, 1.372974, -179.444366, -634.177307)" style="fill: rgb(51, 51, 51); font-family: &quot;Roboto Slab&quot;; font-size: 50.5px; white-space: pre;"><tspan x="343.855" y="2356.99" style="font-weight: 700;">Præstation:</tspan><tspan> </tspan><tspan x="343.855" dy="1em">​</tspan><tspan>hvi jeg ikke giver mig 100%,</tspan><tspan x="343.855" dy="1em">​</tspan><tspan>er det ikke godt nok.</tspan></text>
    </g>
  </g>
</svg>
